; generated by PrusaSlicer 2.5.0+MacOS-x64 on 2022-10-08 at 10:01:37 UTC

; 

; external perimeters extrusion width = 0.45mm
; perimeters extrusion width = 0.45mm
; infill extrusion width = 0.45mm
; solid infill extrusion width = 0.45mm
; top infill extrusion width = 0.40mm
; support material extrusion width = 0.35mm
; first layer extrusion width = 0.42mm

M73 P0 R92
M73 Q0 S93
M107
;TYPE:Custom
M862.3 P "MK3S" ; printer model check
M862.1 P0.4 ; nozzle diameter check
M115 U3.9.3 ; tell printer latest fw version
G90 ; use absolute coordinates
M83 ; extruder relative mode
M104 S215 ; set extruder temp
M140 S60 ; set bed temp
M190 S60 ; wait for bed temp
M109 S215 ; wait for extruder temp
G28 W ; home all without mesh bed level
G80 ; mesh bed leveling
G1 Y-3.0 F1000.0 ; go outside print area
G92 E0.0
G1 X60.0 E9.0 F1000.0 ; intro line
G1 X100.0 E12.5 F1000.0 ; intro line
G92 E0.0
M221 S95

; Don't change E values below. Excessive value can damage the printer.
M907 E430 ; set extruder motor current
G21 ; set units to millimeters
G90 ; use absolute coordinates
M83 ; use relative distances for extrusion
M900 K0.05 ; Filament gcode LA 1.5
M900 K30 ; Filament gcode LA 1.0
M107
;LAYER_CHANGE
;Z:0.2
;HEIGHT:0.2
;BEFORE_LAYER_CHANGE
G92 E0.0
;0.2


G1 E-.8 F2100
G1 Z.4 F10800
;AFTER_LAYER_CHANGE
;0.2
G1 X81.182 Y61.13
G1 Z.2
G1 E.8 F2100
M204 S1000
;TYPE:Skirt/Brim
;WIDTH:0.42
G1 F1200
G1 X82.321 Y60.516 E.04057
G1 X103.084 Y55.902 E.66691
G1 X114.669 Y53.584 E.37043
G1 X130.717 Y53.584 E.50316
M73 Q0 S92
G1 X142.302 Y55.902 E.37043
G1 X163.065 Y60.516 E.66691
G1 X164.256 Y61.182 E.04278
G1 X164.87 Y62.321 E.04057
G1 X169.484 Y83.084 E.66691
G1 X171.802 Y94.669 E.37043
G1 X176.434 Y124.766 E.95478
G1 X176.462 Y137.935 E.41292
G1 X175.766 Y139.616 E.05704
G1 X159.616 Y155.766 E.7161
G1 X157.935 Y156.462 E.05704
G1 X144.766 Y156.434 E.41292
G1 X114.774 Y151.82 E.95144
G1 X103.084 Y149.484 E.37377
G1 X82.321 Y144.87 E.66691
G1 X81.13 Y144.204 E.04278
G1 X80.516 Y143.065 E.04057
G1 X75.902 Y122.302 E.66691
G1 X73.584 Y110.717 E.37043
G1 X73.538 Y95.135 E.48855
G1 X75.902 Y83.084 E.38505
G1 X80.516 Y62.321 E.66691
G1 X81.152 Y61.182 E.0409
; printing object large_blank_1_enc_v1_1.stl id:0 copy 0
;WIPE_START
G1 F8640
G1 X82.321 Y60.516 E-.31054
G1 X84.221 Y60.093 E-.44946
;WIPE_END
G1 E-.04 F2100
G1 Z.6 F10800
G1 X130.251 Y58.222
G1 Z.2
G1 E.8 F2100
;TYPE:Support material
G1 F1200
G1 X141.786 Y58.222 E.36168
G1 X141.786 Y60.529 E.07234
G1 X146.4 Y60.529 E.14467
G1 X146.4 Y62.836 E.07234
G1 X162.55 Y62.836 E.50636
G1 X162.55 Y78.986 E.50636
G1 X164.857 Y78.986 E.07234
G1 X164.857 Y83.6 E.14467
G1 X167.164 Y83.6 E.07234
G1 X167.164 Y95.135 E.36168
G1 X169.471 Y95.135 E.07234
G1 X169.471 Y110.251 E.47393
G1 X167.164 Y110.251 E.07234
G1 X167.164 Y120.513 E.32178
G1 X169.471 Y120.513 E.07234
G1 X169.471 Y122.82 E.07234
M73 P0 R91
G1 X171.778 Y122.82 E.07234
G1 X171.778 Y125.127 E.07234
G1 X174.085 Y125.127 E.07234
G1 X174.085 Y137.935 E.40159
G1 X171.778 Y137.935 E.07234
G1 X171.778 Y140.243 E.07234
G1 X169.471 Y140.243 E.07234
G1 X169.471 Y142.55 E.07234
G1 X167.164 Y142.55 E.07234
G1 X167.164 Y144.857 E.07234
G1 X164.857 Y144.857 E.07234
G1 X164.857 Y147.164 E.07234
G1 X162.55 Y147.164 E.07234
G1 X162.55 Y149.471 E.07234
G1 X160.243 Y149.471 E.07234
G1 X160.243 Y151.778 E.07234
G1 X157.935 Y151.778 E.07234
G1 X157.935 Y154.085 E.07234
G1 X145.127 Y154.085 E.40159
G1 X145.127 Y151.778 E.07234
G1 X142.82 Y151.778 E.07234
G1 X142.82 Y149.471 E.07234
G1 X140.513 Y149.471 E.07234
G1 X140.513 Y147.164 E.07234
G1 X130.251 Y147.164 E.32178
G1 X130.251 Y149.471 E.07234
G1 X115.135 Y149.471 E.47393
G1 X115.135 Y147.164 E.07234
G1 X103.6 Y147.164 E.36168
G1 X103.6 Y144.857 E.07234
G1 X98.986 Y144.857 E.14467
G1 X98.986 Y142.55 E.07234
G1 X82.836 Y142.55 E.50636
G1 X82.836 Y126.4 E.50636
G1 X80.529 Y126.4 E.07234
G1 X80.529 Y121.786 E.14467
G1 X78.222 Y121.786 E.07234
G1 X78.222 Y110.251 E.36168
G1 X75.915 Y110.251 E.07234
G1 X75.915 Y95.135 E.47393
G1 X78.222 Y95.135 E.07234
G1 X78.222 Y83.6 E.36168
G1 X80.529 Y83.6 E.07234
G1 X80.529 Y78.986 E.14467
G1 X82.836 Y78.986 E.07234
G1 X82.836 Y62.836 E.50636
G1 X98.986 Y62.836 E.50636
G1 X98.986 Y60.529 E.07234
G1 X103.6 Y60.529 E.14467
G1 X103.6 Y58.222 E.07234
G1 X115.135 Y58.222 E.36168
G1 X115.135 Y55.915 E.07234
G1 X130.251 Y55.915 E.47393
G1 X130.251 Y58.165 E.07056
G1 X122.671 Y61.674 F10800
G1 F1200
G1 X121.24 Y61.699 E.04487
G1 X119.817 Y61.773 E.04467
G1 X117.68 Y61.979 E.0673
G1 X116.263 Y62.178 E.04487
G1 X115.551 Y62.297 E.02264
G1 X114.146 Y62.57 E.04487
G1 X112.758 Y62.891 E.04467
G1 X111.392 Y63.257 E.04435
G1 X110.683 Y63.466 E.02316
G1 X109.322 Y63.909 E.04487
G1 X107.999 Y64.39 E.04415
G1 X107.312 Y64.661 E.02316
G1 X106.001 Y65.217 E.04466
G1 X105.343 Y65.517 E.02264
G1 X104.057 Y66.144 E.04487
G1 X102.794 Y66.816 E.04487
G1 X101.56 Y67.528 E.04466
G1 X100.36 Y68.278 E.04436
G1 X99.744 Y68.685 E.02316
G1 X99.154 Y69.09 E.02244
G1 X97.997 Y69.932 E.04487
G1 X96.874 Y70.809 E.04466
G1 X95.778 Y71.729 E.04487
G1 X95.237 Y72.207 E.02264
G1 X94.19 Y73.183 E.04487
G1 X93.183 Y74.19 E.04466
G1 X92.207 Y75.237 E.04487
G1 X91.729 Y75.778 E.02264
G1 X90.809 Y76.874 E.04487
G1 X89.932 Y77.997 E.04466
G1 X89.09 Y79.154 E.04487
G1 X88.681 Y79.75 E.02264
G1 X87.902 Y80.95 E.04487
G1 X87.168 Y82.171 E.04467
G1 X86.475 Y83.423 E.04487
G1 X85.825 Y84.698 E.04487
G1 X85.514 Y85.349 E.02264
G1 X84.932 Y86.657 E.04487
G1 X84.398 Y87.978 E.04466
G1 X83.909 Y89.322 E.04487
G1 X83.68 Y90.007 E.02264
G1 X83.263 Y91.37 E.04467
G1 X83.066 Y92.081 E.02316
G1 X82.724 Y93.454 E.04436
G1 X82.428 Y94.847 E.04466
G1 X82.179 Y96.257 E.04487
G1 X82.072 Y96.971 E.02264
G1 X81.899 Y98.385 E.04467
G1 X81.774 Y99.81 E.04487
G1 X81.68 Y101.955 E.06731
G1 X81.68 Y103.386 E.04487
G1 X81.699 Y104.108 E.02264
G1 X81.773 Y105.531 E.04466
G1 X81.898 Y106.956 E.04487
G1 X81.98 Y107.674 E.02264
G1 X82.179 Y109.091 E.04487
G1 X82.428 Y110.5 E.04487
G1 X82.725 Y111.9 E.04487
G1 X83.07 Y113.282 E.04467
G1 X83.464 Y114.658 E.04487
G1 X84.145 Y116.694 E.0673
G1 X84.398 Y117.37 E.02264
G1 X84.932 Y118.691 E.04467
G1 X85.22 Y119.353 E.02264
G1 X85.822 Y120.644 E.04467
G1 X86.144 Y121.29 E.02264
G1 X86.813 Y122.548 E.04467
G1 X87.54 Y123.807 E.04559
G1 X88.685 Y125.603 E.06678
G1 X89.09 Y126.193 E.02244
G1 X89.932 Y127.351 E.04487
G1 X91.268 Y129.031 E.0673
G1 X92.686 Y130.633 E.0671
G1 X93.183 Y131.157 E.02264
G1 X94.19 Y132.164 E.04466
G1 X95.225 Y133.129 E.04435
G1 X95.778 Y133.619 E.02316
G1 X97.434 Y134.984 E.0673
G1 X99.154 Y136.257 E.0671
G1 X99.75 Y136.666 E.02264
G1 X100.944 Y137.442 E.04466
G1 X102.177 Y138.182 E.04508
G1 X103.423 Y138.873 E.04467
G1 X104.063 Y139.206 E.02264
G1 X105.995 Y140.128 E.0671
G1 X106.657 Y140.416 E.02264
G1 X107.984 Y140.952 E.04487
G1 X109.323 Y141.439 E.04467
G1 X110.683 Y141.881 E.04486
G1 X111.376 Y142.086 E.02265
G1 X112.758 Y142.457 E.04487
G1 X114.847 Y142.92 E.0671
G1 X116.24 Y143.166 E.04435
G1 X116.964 Y143.274 E.02296
G1 X117.68 Y143.369 E.02264
G1 X119.097 Y143.517 E.04467
G1 X119.817 Y143.574 E.02264
G1 X121.24 Y143.649 E.04466
G1 X121.962 Y143.668 E.02264
G1 X123.393 Y143.668 E.04487
G1 X125.537 Y143.574 E.06731
G1 X126.956 Y143.45 E.04466
G1 X127.674 Y143.368 E.02264
G1 X129.091 Y143.169 E.04487
G1 X130.478 Y142.924 E.04415
G1 X131.201 Y142.777 E.02316
G1 X132.589 Y142.457 E.04466
G1 X133.972 Y142.086 E.04487
G1 X134.664 Y141.881 E.02265
G1 X136.003 Y141.446 E.04415
G1 X136.7 Y141.2 E.02316
G1 X138.03 Y140.689 E.04467
G1 X138.697 Y140.413 E.02264
G1 X139.998 Y139.834 E.04466
G1 X140.74 Y139.478 E.02579
G1 X148.064 Y146.802 E.32476
G1 X148.423 Y147.119 E.01503
G1 X148.878 Y147.449 E.0176
G1 X149.454 Y147.776 E.02077
G1 X149.983 Y148 E.01801
G1 X150.526 Y148.166 E.01781
G1 X151.177 Y148.286 E.02077
G1 X151.832 Y148.326 E.02056
G1 X152.493 Y148.286 E.02076
G1 X153.058 Y148.186 E.01801
G1 X153.687 Y148 E.02057
G1 X154.21 Y147.779 E.01781
G1 X154.707 Y147.504 E.0178
G1 X155.103 Y147.232 E.01506
G1 X155.537 Y146.867 E.01778
G1 X166.868 Y135.536 E.50245
G1 X167.121 Y135.245 E.01207
G1 X167.398 Y134.87 E.01464
G1 X167.602 Y134.543 E.01206
G1 X167.817 Y134.129 E.01464
G1 X167.968 Y133.775 E.01207
G1 X168.116 Y133.331 E.01466
G1 X168.209 Y132.958 E.01205
G1 X168.286 Y132.498 E.01464
G1 X168.323 Y132.019 E.01506
G1 X168.313 Y131.459 E.01758
G1 X168.259 Y130.981 E.01506
G1 X168.142 Y130.432 E.01762
G1 X167.997 Y129.975 E.01503
G1 X167.778 Y129.458 E.01759
G1 X167.549 Y129.037 E.01505
G1 X167.235 Y128.571 E.0176
G1 X166.997 Y128.277 E.01187
M73 P1 R91
G1 X166.741 Y128.002 E.01177
M73 Q1 S92
G1 X159.478 Y120.74 E.32204
G1 X160.13 Y119.347 E.04822
G1 X160.687 Y118.036 E.04467
G1 X160.952 Y117.364 E.02264
G1 X161.439 Y116.025 E.04466
G1 X161.668 Y115.34 E.02264
G1 X162.085 Y113.978 E.04467
G1 X162.278 Y113.282 E.02264
G1 X162.622 Y111.9 E.04467
G1 X162.778 Y111.195 E.02264
G1 X163.05 Y109.797 E.04467
G1 X163.17 Y109.084 E.02264
G1 X163.449 Y106.963 E.0671
G1 X163.574 Y105.537 E.04487
G1 X163.617 Y104.823 E.02244
G1 X163.649 Y104.101 E.02264
G1 X163.674 Y102.677 E.04467
G1 X163.668 Y101.955 E.02264
G1 X163.618 Y100.531 E.04467
G1 X163.574 Y99.81 E.02264
G1 X163.45 Y98.391 E.04466
G1 X163.272 Y96.948 E.04559
G1 X162.92 Y94.847 E.06679
G1 X162.624 Y93.454 E.04466
G1 X162.455 Y92.752 E.02264
G1 X162.086 Y91.376 E.04466
G1 X161.881 Y90.683 E.02265
G1 X161.202 Y88.654 E.06709
G1 X160.687 Y87.312 E.04507
G1 X160.128 Y85.995 E.04487
G1 X159.516 Y84.683 E.04539
G1 X158.535 Y82.799 E.06658
G1 X157.819 Y81.56 E.04487
G1 X157.058 Y80.341 E.04508
G1 X156.257 Y79.154 E.04487
G1 X155.416 Y77.997 E.04487
G1 X154.539 Y76.874 E.04466
G1 X153.615 Y75.773 E.04508
G1 X152.169 Y74.195 E.0671
G1 X151.157 Y73.183 E.04487
G1 X150.106 Y72.203 E.04508
G1 X149.026 Y71.264 E.04487
G1 X147.351 Y69.932 E.0671
G1 X146.193 Y69.09 E.04487
G1 X145.001 Y68.286 E.04508
G1 X143.787 Y67.528 E.04487
G1 X142.548 Y66.813 E.04487
G1 X140.665 Y65.832 E.06658
G1 X139.353 Y65.22 E.04539
G1 X138.036 Y64.661 E.04487
G1 X136.694 Y64.145 E.04507
G1 X135.34 Y63.68 E.04487
G1 X133.972 Y63.261 E.04487
G1 X132.589 Y62.891 E.04487
G1 X130.5 Y62.428 E.0671
G1 X129.091 Y62.179 E.04487
G1 X127.667 Y61.979 E.04508
G1 X126.244 Y61.83 E.04487
G1 X124.816 Y61.73 E.04487
G1 X122.727 Y61.674 E.06553
;WIPE_START
G1 F8640
G1 X124.816 Y61.73 E-.48257
G1 X126.015 Y61.814 E-.27743
;WIPE_END
G1 E-.04 F2100
G1 Z.6 F10800
G1 X173.601 Y137.766
G1 Z.2
G1 E.8 F2100
G1 F1200
G1 X173.601 Y125.467 E.38563
G1 X173.182 Y125.467 E.01314
G1 X173.182 Y137.596 E.38031
G1 X172.763 Y137.596 E.01314
G1 X172.763 Y125.467 E.38031
G1 X172.344 Y125.467 E.01314
G1 X172.344 Y137.596 E.38031
G1 X171.925 Y137.596 E.01314
G1 X171.925 Y125.467 E.38031
G1 X171.506 Y125.467 E.01314
G1 X171.506 Y137.596 E.38031
G1 X171.439 Y137.596 E.00213
G1 X171.439 Y139.903 E.07234
G1 X171.087 Y139.903 E.01101
G1 X171.087 Y123.16 E.52498
G1 X170.668 Y123.16 E.01314
G1 X170.668 Y139.903 E.52498
G1 X170.25 Y139.903 E.01314
G1 X170.25 Y123.16 E.52498
G1 X169.831 Y123.16 E.01314
M73 Q1 S91
G1 X169.831 Y139.903 E.52498
G1 X169.412 Y139.903 E.01314
G1 X169.412 Y123.16 E.52498
G1 X169.132 Y123.16 E.00878
G1 X169.132 Y120.853 E.07234
G1 X168.993 Y120.853 E.00436
G1 X168.993 Y142.21 E.66966
G1 X168.574 Y142.21 E.01314
G1 X168.574 Y120.853 E.66966
G1 X168.155 Y120.853 E.01314
G1 X168.155 Y129.463 E.26996
G1 X167.944 Y129.043 E.01472
G1 X167.736 Y128.696 E.01271
G1 X167.736 Y120.853 E.24591
G1 X167.317 Y120.853 E.01314
G1 X167.317 Y128.129 E.22816
G1 X166.898 Y127.679 E.01928
G1 X166.898 Y95.475 E1.00976
G1 X167.317 Y95.475 E.01314
G1 X167.317 Y109.911 E.45265
G1 X167.736 Y109.911 E.01314
G1 X167.736 Y95.475 E.45265
G1 X168.155 Y95.475 E.01314
G1 X168.155 Y109.911 E.45265
G1 X168.574 Y109.911 E.01314
G1 X168.574 Y95.475 E.45265
G1 X168.993 Y95.475 E.01314
G1 X168.993 Y110.081 E.45797
;WIPE_START
G1 F8640
G1 X168.993 Y106.789 E-.76
;WIPE_END
G1 E-.04 F2100
G1 Z.6 F10800
G1 X168.155 Y142.38
G1 Z.2
G1 E.8 F2100
G1 F1200
G1 X168.155 Y134.207 E.25625
G1 X167.946 Y134.624 E.0146
G1 X167.736 Y134.974 E.01283
G1 X167.736 Y142.21 E.22687
G1 X167.317 Y142.21 E.01314
G1 X167.317 Y135.541 E.20912
G1 X166.898 Y135.991 E.01928
G1 X166.898 Y142.21 E.19501
G1 X166.824 Y142.21 E.0023
G1 X166.824 Y144.517 E.07234
G1 X166.479 Y144.517 E.01084
G1 X166.479 Y136.41 E.25421
G1 X166.06 Y136.829 E.01858
G1 X166.06 Y144.517 E.24108
G1 X165.641 Y144.517 E.01314
G1 X165.641 Y137.248 E.22794
G1 X165.222 Y137.666 E.01858
G1 X165.222 Y144.517 E.2148
G1 X164.803 Y144.517 E.01314
G1 X164.803 Y138.085 E.20167
G1 X164.384 Y138.504 E.01858
G1 X164.384 Y146.824 E.26087
G1 X163.965 Y146.824 E.01314
G1 X163.965 Y138.923 E.24773
G1 X163.546 Y139.342 E.01858
G1 X163.546 Y146.824 E.23459
G1 X163.127 Y146.824 E.01314
G1 X163.127 Y139.761 E.22146
G1 X162.708 Y140.18 E.01858
G1 X162.708 Y146.824 E.20832
G1 X162.289 Y146.824 E.01314
G1 X162.289 Y140.599 E.19518
G1 X161.87 Y141.018 E.01858
G1 X161.87 Y149.132 E.25438
G1 X161.451 Y149.132 E.01314
G1 X161.451 Y141.437 E.24125
G1 X161.032 Y141.856 E.01858
G1 X161.032 Y149.132 E.22811
G1 X160.613 Y149.132 E.01314
G1 X160.613 Y142.275 E.21497
G1 X160.194 Y142.694 E.01858
G1 X160.194 Y149.132 E.20184
G1 X159.903 Y149.132 E.00912
G1 X159.903 Y151.439 E.07234
G1 X159.775 Y151.439 E.00402
G1 X159.775 Y143.113 E.26104
G1 X159.356 Y143.532 E.01858
G1 X159.356 Y151.439 E.2479
G1 X158.937 Y151.439 E.01314
G1 X158.937 Y143.951 E.23476
G1 X158.518 Y144.37 E.01858
G1 X158.518 Y151.439 E.22163
G1 X158.099 Y151.439 E.01314
G1 X158.099 Y144.789 E.20849
G1 X157.68 Y145.208 E.01858
G1 X157.68 Y151.439 E.19535
G1 X157.596 Y151.439 E.00264
G1 X157.596 Y153.746 E.07234
G1 X157.261 Y153.746 E.0105
G1 X157.261 Y145.627 E.25455
G1 X156.842 Y146.046 E.01858
G1 X156.842 Y153.746 E.24142
G1 X156.423 Y153.746 E.01314
M73 P1 R90
G1 X156.423 Y146.465 E.22828
G1 X156.004 Y146.884 E.01858
G1 X156.004 Y153.746 E.21514
G1 X155.585 Y153.746 E.01314
G1 X155.585 Y147.279 E.20277
G1 X155.166 Y147.605 E.01666
G1 X155.166 Y153.746 E.19253
G1 X154.747 Y153.746 E.01314
G1 X154.747 Y147.876 E.18405
G1 X154.328 Y148.098 E.01488
G1 X154.328 Y153.746 E.17707
G1 X153.909 Y153.746 E.01314
G1 X153.909 Y148.279 E.17139
G1 X153.49 Y148.423 E.01388
G1 X153.49 Y153.746 E.1669
G1 X153.071 Y153.746 E.01314
G1 X153.071 Y148.531 E.16349
G1 X152.652 Y148.607 E.01335
G1 X152.652 Y153.746 E.16111
G1 X152.234 Y153.746 E.01314
G1 X152.234 Y148.652 E.15971
G1 X151.815 Y148.665 E.01314
G1 X151.815 Y153.746 E.15929
G1 X151.396 Y153.746 E.01314
G1 X151.396 Y148.649 E.15981
G1 X150.977 Y148.601 E.01322
G1 X150.977 Y153.746 E.1613
G1 X150.558 Y153.746 E.01314
G1 X150.558 Y148.522 E.16378
G1 X150.139 Y148.41 E.0136
G1 X150.139 Y153.746 E.16729
G1 X149.72 Y153.746 E.01314
G1 X149.72 Y148.263 E.1719
G1 X149.301 Y148.079 E.01436
G1 X149.301 Y153.746 E.17769
G1 X148.882 Y153.746 E.01314
G1 X148.882 Y147.851 E.18481
G1 X148.463 Y147.576 E.01572
G1 X148.463 Y153.746 E.19344
G1 X148.044 Y153.746 E.01314
G1 X148.044 Y147.243 E.20388
G1 X147.625 Y146.843 E.01817
G1 X147.625 Y153.746 E.21643
G1 X147.206 Y153.746 E.01314
G1 X147.206 Y146.424 E.22956
G1 X146.787 Y146.005 E.01858
G1 X146.787 Y153.746 E.2427
G1 X146.368 Y153.746 E.01314
G1 X146.368 Y145.586 E.25584
G1 X145.949 Y145.167 E.01858
G1 X145.949 Y153.746 E.26897
G1 X145.53 Y153.746 E.01314
G1 X145.53 Y144.748 E.28211
G1 X145.111 Y144.329 E.01858
G1 X145.111 Y151.439 E.22291
G1 X144.692 Y151.439 E.01314
G1 X144.692 Y143.91 E.23605
G1 X144.273 Y143.491 E.01858
G1 X144.273 Y151.439 E.24918
G1 X143.854 Y151.439 E.01314
G1 X143.854 Y143.072 E.26232
G1 X143.435 Y142.653 E.01858
G1 X143.435 Y151.439 E.27546
G1 X143.16 Y151.439 E.00863
G1 X143.16 Y149.132 E.07234
G1 X143.016 Y149.132 E.0045
G1 X143.016 Y142.234 E.21626
G1 X142.597 Y141.815 E.01858
G1 X142.597 Y149.132 E.22939
G1 X142.178 Y149.132 E.01314
G1 X142.178 Y141.396 E.24253
G1 X141.759 Y140.977 E.01858
G1 X141.759 Y149.132 E.25567
G1 X141.34 Y149.132 E.01314
G1 X141.34 Y140.558 E.2688
G1 X140.921 Y140.139 E.01858
G1 X140.921 Y149.132 E.28194
